X: 1b
T: Peg Ryan's
T: Egan's Polka
T: The Kerry Polka
R:polka
M:2/4
L:1/8
K:D
"D"fA BA|fA BA|d2 e>f|"(Bm)"ed Bd|
"D"fA BA|fA BA|d2 e>f|ed d2:|
|:"D"fa e>f|ed Bd|fa e>f|ed d2|
"D"fa e>f|ed Bd|"A"A2 a>f|"D"ed d2:|


